optimized/24/outline/cny.svg

<svg viewBox="0 0 24 24" fill="none" xmlns="http://www.w3.org/2000/svg">
  <g clip-path="url(#clip0_2627_42225)">
    <path d="M5.46967 2.21967C5.76256 1.92678 6.23744 1.92678 6.53033 2.21967L12 7.68934L17.4697 2.21967C17.7626 1.92678 18.2374 1.92678 18.5303 2.21967C18.8232 2.51256 18.8232 2.98744 18.5303 3.28033L13.8107 8H18C18.4142 8 18.75 8.33579 18.75 8.75C18.75 9.16421 18.4142 9.5 18 9.5H12.75V12.5H17C17.4142 12.5 17.75 12.8358 17.75 13.25C17.75 13.6642 17.4142 14 17 14H12.75V21.25C12.75 21.6642 12.4142 22 12 22C11.5858 22 11.25 21.6642 11.25 21.25V14H7C6.58579 14 6.25 13.6642 6.25 13.25C6.25 12.8358 6.58579 12.5 7 12.5H11.25V9.5H6C5.58579 9.5 5.25 9.16421 5.25 8.75C5.25 8.33579 5.58579 8 6 8H10.1893L5.46967 3.28033C5.17678 2.98744 5.17678 2.51256 5.46967 2.21967Z" fill="#333333"/>
  </g>
  <defs>
    <clipPath id="clip0_2627_42225">
      <rect width="24" height="24" fill="white"/>
    </clipPath>
  </defs>
</svg>

<svg xmlns="http://www.w3.org/2000/svg" width="24" height="24" fill="none">
  <g clip-path="url(#a)">
    <path fill="#333" d="M5.47 2.22a.75.75 0 0 1 1.06 0L12 7.69l5.47-5.47a.75.75 0 1 1 1.06 1.06L13.81 8H18a.75.75 0 0 1 0 1.5h-5.25v3H17a.75.75 0 0 1 0 1.5h-4.25v7.25a.75.75 0 0 1-1.5 0V14H7a.75.75 0 0 1 0-1.5h4.25v-3H6A.75.75 0 0 1 6 8h4.19L5.47 3.28a.75.75 0 0 1 0-1.06Z"/>
  </g>
  <defs>
    <clipPath id="a">
      <path fill="#fff" d="M0 0h24v24H0z"/>
    </clipPath>
  </defs>
</svg>
